src/assets/svg/happi-logo.svg

<svg clip-rule="evenodd" fill-rule="evenodd" stroke-linejoin="round" stroke-miterlimit="2" viewBox="0 0 43 16" xmlns="http://www.w3.org/2000/svg"><g fill-rule="nonzero"><path d="m.649-.71v.71h-.069v-.332h-.421v.332h-.07v-.71h.07v.316h.421v-.316z" transform="matrix(16.72602084 0 0 15.80232652 -1.50755639285 11.644901039)"/><path d="m.206.01c-.025 0-.047-.004-.068-.013-.021-.008-.04-.019-.055-.034-.016-.015-.028-.032-.037-.052-.009-.019-.013-.04-.013-.063s.005-.044.016-.063.026-.036.045-.05.042-.025.069-.033c.027-.007.056-.011.088-.011.027 0 .054.002.081.007s.052.011.073.02v-.047c0-.046-.013-.083-.039-.11s-.062-.04-.108-.04c-.027 0-.054.005-.082.016s-.056.026-.085.046l-.024-.045c.067-.045.133-.068.196-.068.065 0 .117.018.154.055s.056.087.056.152v.235c0 .019.008.028.025.028v.06c-.011.002-.02.003-.026.003-.017 0-.031-.004-.04-.013-.01-.009-.015-.021-.016-.036l-.002-.041c-.024.031-.054.055-.09.072-.037.017-.076.025-.118.025zm.016-.052c.035 0 .068-.007.098-.02.029-.013.052-.031.067-.053.006-.006.011-.013.014-.02.003-.006.004-.013.004-.019v-.085c-.023-.009-.046-.015-.07-.02-.025-.005-.05-.007-.075-.007-.048 0-.087.01-.117.03s-.045.046-.045.079c0 .016.003.031.01.045.006.014.015.026.026.036.011.011.024.019.039.025s.032.009.049.009z" transform="matrix(16.72602084 0 0 15.80232652 10.752603406 11.644901039)"/><path d="m.341.01c-.044 0-.083-.011-.116-.034-.034-.022-.061-.05-.082-.084v.321h-.068v-.734h.061v.101c.021-.033.049-.059.083-.08.034-.02.071-.03.111-.03.036 0 .069.007.099.022s.056.036.078.06c.022.025.039.054.052.087.012.033.018.066.018.101 0 .037-.006.071-.017.104s-.027.061-.048.086-.046.044-.075.058c-.029.015-.061.022-.096.022zm-.019-.06c.028 0 .054-.006.077-.018s.042-.028.059-.048c.016-.019.028-.042.037-.067s.013-.05.013-.077c0-.028-.005-.055-.015-.08s-.024-.048-.041-.067-.038-.035-.061-.046c-.024-.011-.05-.017-.077-.017-.017 0-.035.003-.054.01-.019.008-.037.017-.053.028-.017.012-.031.026-.042.041-.012.016-.019.033-.022.05v.16c.008.019.018.036.031.052.012.016.026.03.042.041.015.012.032.021.05.028s.037.01.056.01z" transform="matrix(16.72602084 0 0 15.80232652 19.868235757 11.644901039)"/><path d="m.341.01c-.044 0-.083-.011-.116-.034-.034-.022-.061-.05-.082-.084v.321h-.068v-.734h.061v.101c.021-.033.049-.059.083-.08.034-.02.071-.03.111-.03.036 0 .069.007.099.022s.056.036.078.06c.022.025.039.054.052.087.012.033.018.066.018.101 0 .037-.006.071-.017.104s-.027.061-.048.086-.046.044-.075.058c-.029.015-.061.022-.096.022zm-.019-.06c.028 0 .054-.006.077-.018s.042-.028.059-.048c.016-.019.028-.042.037-.067s.013-.05.013-.077c0-.028-.005-.055-.015-.08s-.024-.048-.041-.067-.038-.035-.061-.046c-.024-.011-.05-.017-.077-.017-.017 0-.035.003-.054.01-.019.008-.037.017-.053.028-.017.012-.031.026-.042.041-.012.016-.019.033-.022.05v.16c.008.019.018.036.031.052.012.016.026.03.042.041.015.012.032.021.05.028s.037.01.056.01z" transform="matrix(16.72602084 0 0 15.80232652 30.188210218 11.644901039)"/><path d="m.075 0v-.521h.068v.521zm0-.63v-.1h.068v.1z" transform="matrix(16.72602084 0 0 15.80232652 40.508062162 11.644901039)"/></g></svg>

<svg width="100%" height="100%" viewBox="0 0 43 16" version="1.1" xmlns="http://www.w3.org/2000/svg" xmlns:xlink="http://www.w3.org/1999/xlink" xml:space="preserve" xmlns:serif="http://www.serif.com/" style="fill-rule:evenodd;clip-rule:evenodd;stroke-linejoin:round;stroke-miterlimit:2;">
    <g transform="matrix(1.22517,0,0,1.15751,-2.64071,-3.32043)">
        <g transform="matrix(13.652,0,0,13.652,0.924895,12.9289)">
            <path d="M0.649,-0.71L0.649,0L0.58,0L0.58,-0.332L0.159,-0.332L0.159,0L0.089,0L0.089,-0.71L0.159,-0.71L0.159,-0.394L0.58,-0.394L0.58,-0.71L0.649,-0.71Z" style="fill-rule:nonzero;"/>
        </g>
        <g transform="matrix(13.652,0,0,13.652,10.9318,12.9289)">
            <path d="M0.206,0.01C0.181,0.01 0.159,0.006 0.138,-0.003C0.117,-0.011 0.098,-0.022 0.083,-0.037C0.067,-0.052 0.055,-0.069 0.046,-0.089C0.037,-0.108 0.033,-0.129 0.033,-0.152C0.033,-0.175 0.038,-0.196 0.049,-0.215C0.06,-0.234 0.075,-0.251 0.094,-0.265C0.113,-0.279 0.136,-0.29 0.163,-0.298C0.19,-0.305 0.219,-0.309 0.251,-0.309C0.278,-0.309 0.305,-0.307 0.332,-0.302C0.359,-0.297 0.384,-0.291 0.405,-0.282L0.405,-0.329C0.405,-0.375 0.392,-0.412 0.366,-0.439C0.34,-0.466 0.304,-0.479 0.258,-0.479C0.231,-0.479 0.204,-0.474 0.176,-0.463C0.148,-0.452 0.12,-0.437 0.091,-0.417L0.067,-0.462C0.134,-0.507 0.2,-0.53 0.263,-0.53C0.328,-0.53 0.38,-0.512 0.417,-0.475C0.454,-0.438 0.473,-0.388 0.473,-0.323L0.473,-0.088C0.473,-0.069 0.481,-0.06 0.498,-0.06L0.498,0C0.487,0.002 0.478,0.003 0.472,0.003C0.455,0.003 0.441,-0.001 0.432,-0.01C0.422,-0.019 0.417,-0.031 0.416,-0.046L0.414,-0.087C0.39,-0.056 0.36,-0.032 0.324,-0.015C0.287,0.002 0.248,0.01 0.206,0.01ZM0.222,-0.042C0.257,-0.042 0.29,-0.049 0.32,-0.062C0.349,-0.075 0.372,-0.093 0.387,-0.115C0.393,-0.121 0.398,-0.128 0.401,-0.135C0.404,-0.141 0.405,-0.148 0.405,-0.154L0.405,-0.239C0.382,-0.248 0.359,-0.254 0.335,-0.259C0.31,-0.264 0.285,-0.266 0.26,-0.266C0.212,-0.266 0.173,-0.256 0.143,-0.236C0.113,-0.216 0.098,-0.19 0.098,-0.157C0.098,-0.141 0.101,-0.126 0.108,-0.112C0.114,-0.098 0.123,-0.086 0.134,-0.076C0.145,-0.065 0.158,-0.057 0.173,-0.051C0.188,-0.045 0.205,-0.042 0.222,-0.042Z" style="fill-rule:nonzero;"/>
        </g>
        <g transform="matrix(13.652,0,0,13.652,18.3721,12.9289)">
            <path d="M0.341,0.01C0.297,0.01 0.258,-0.001 0.225,-0.024C0.191,-0.046 0.164,-0.074 0.143,-0.108L0.143,0.213L0.075,0.213L0.075,-0.521L0.136,-0.521L0.136,-0.42C0.157,-0.453 0.185,-0.479 0.219,-0.5C0.253,-0.52 0.29,-0.53 0.33,-0.53C0.366,-0.53 0.399,-0.523 0.429,-0.508C0.459,-0.493 0.485,-0.472 0.507,-0.448C0.529,-0.423 0.546,-0.394 0.559,-0.361C0.571,-0.328 0.577,-0.295 0.577,-0.26C0.577,-0.223 0.571,-0.189 0.56,-0.156C0.549,-0.123 0.533,-0.095 0.512,-0.07C0.491,-0.045 0.466,-0.026 0.437,-0.012C0.408,0.003 0.376,0.01 0.341,0.01ZM0.322,-0.05C0.35,-0.05 0.376,-0.056 0.399,-0.068C0.422,-0.08 0.441,-0.096 0.458,-0.116C0.474,-0.135 0.486,-0.158 0.495,-0.183C0.504,-0.208 0.508,-0.233 0.508,-0.26C0.508,-0.288 0.503,-0.315 0.493,-0.34C0.483,-0.365 0.469,-0.388 0.452,-0.407C0.435,-0.426 0.414,-0.442 0.391,-0.453C0.367,-0.464 0.341,-0.47 0.314,-0.47C0.297,-0.47 0.279,-0.467 0.26,-0.46C0.241,-0.452 0.223,-0.443 0.207,-0.432C0.19,-0.42 0.176,-0.406 0.165,-0.391C0.153,-0.375 0.146,-0.358 0.143,-0.341L0.143,-0.181C0.151,-0.162 0.161,-0.145 0.174,-0.129C0.186,-0.113 0.2,-0.099 0.216,-0.088C0.231,-0.076 0.248,-0.067 0.266,-0.06C0.284,-0.053 0.303,-0.05 0.322,-0.05Z" style="fill-rule:nonzero;"/>
        </g>
        <g transform="matrix(13.652,0,0,13.652,26.7954,12.9289)">
            <path d="M0.341,0.01C0.297,0.01 0.258,-0.001 0.225,-0.024C0.191,-0.046 0.164,-0.074 0.143,-0.108L0.143,0.213L0.075,0.213L0.075,-0.521L0.136,-0.521L0.136,-0.42C0.157,-0.453 0.185,-0.479 0.219,-0.5C0.253,-0.52 0.29,-0.53 0.33,-0.53C0.366,-0.53 0.399,-0.523 0.429,-0.508C0.459,-0.493 0.485,-0.472 0.507,-0.448C0.529,-0.423 0.546,-0.394 0.559,-0.361C0.571,-0.328 0.577,-0.295 0.577,-0.26C0.577,-0.223 0.571,-0.189 0.56,-0.156C0.549,-0.123 0.533,-0.095 0.512,-0.07C0.491,-0.045 0.466,-0.026 0.437,-0.012C0.408,0.003 0.376,0.01 0.341,0.01ZM0.322,-0.05C0.35,-0.05 0.376,-0.056 0.399,-0.068C0.422,-0.08 0.441,-0.096 0.458,-0.116C0.474,-0.135 0.486,-0.158 0.495,-0.183C0.504,-0.208 0.508,-0.233 0.508,-0.26C0.508,-0.288 0.503,-0.315 0.493,-0.34C0.483,-0.365 0.469,-0.388 0.452,-0.407C0.435,-0.426 0.414,-0.442 0.391,-0.453C0.367,-0.464 0.341,-0.47 0.314,-0.47C0.297,-0.47 0.279,-0.467 0.26,-0.46C0.241,-0.452 0.223,-0.443 0.207,-0.432C0.19,-0.42 0.176,-0.406 0.165,-0.391C0.153,-0.375 0.146,-0.358 0.143,-0.341L0.143,-0.181C0.151,-0.162 0.161,-0.145 0.174,-0.129C0.186,-0.113 0.2,-0.099 0.216,-0.088C0.231,-0.076 0.248,-0.067 0.266,-0.06C0.284,-0.053 0.303,-0.05 0.322,-0.05Z" style="fill-rule:nonzero;"/>
        </g>
        <g transform="matrix(13.652,0,0,13.652,35.2186,12.9289)">
            <path d="M0.075,0L0.075,-0.521L0.143,-0.521L0.143,0L0.075,0ZM0.075,-0.63L0.075,-0.73L0.143,-0.73L0.143,-0.63L0.075,-0.63Z" style="fill-rule:nonzero;"/>
        </g>
    </g>
</svg>
